X:1
T:Lacrymæ, 777
T:Arthur Seymour Sullivan, 1872
T:Lacrymæ, 777
T:Public Domain
C:Arthur Seymour Sullivan, 1872
Z:Public Domain
%%score ( 1 2 ) ( 3 4 )
L:1/8
M:3/4
K:Eb
V:1 treble 
V:2 treble 
V:3 bass 
V:4 bass 
V:1
 [EG]4 [EG]2 | (G2 A2) [EB]2 | E4 [DF]2 | [EG]6 | [FB]4 [FB]2 | [Ee]4 [Fd]2 | (G2 F2) [Ec]2 | %7
 [DB]6 | [Fc]4 [CB]2 | (A2 G2) [CF]2 | [DB]4 [B,D]2 | [B,E]6 |] %12
V:2
 x6 | E4 x2 | E4 x2 | x6 | x6 | x6 | c4 x2 | x6 | x6 | C4 x2 | x6 | x6 |] %12
V:3
 [E,B,]4 [E,B,]2 | (E,2 F,2) [G,B,]2 | [B,,G,]4 [B,,A,]2 | [E,G,]6 | [D,F,]4 [D,F,]2 | %5
 G,2 =A,2 [D,B,]2 | (E,2 F,2) [F,,=A,]2 | [B,,B,]6 | [F,,A,]4 [G,,=E,]2 | (F,2 G,2) [A,,A,]2 | %10
 [B,,A,]4 [B,,A,]2 | [E,G,]6 |] %12
V:4
 x6 | B,4 x2 | x6 | x6 | x6 | C,4 x2 | B,4 x2 | x6 | x6 | A,,4 x2 | x6 | x6 |] %12

